newwebsite-big-4/images/dest/services-4.svg

<svg width="57" height="72" viewBox="0 0 57 72" fill="none" xmlns="http://www.w3.org/2000/svg">
<path d="M36.0894 13.1726C36.7218 13.1726 37.3314 13.3586 37.8526 13.7106C38.3355 14.0366 38.9912 13.9097 39.3173 13.427C39.6436 12.9441 39.5165 12.2883 39.0337 11.9622C38.1625 11.3737 37.1443 11.0625 36.0894 11.0625C33.1865 11.0625 30.8247 13.4243 30.8247 16.3272C30.8247 19.2302 33.1865 21.5921 36.0894 21.5921C37.2497 21.5921 38.2913 21.2106 39.1016 20.489C39.2607 20.3474 39.4114 20.1918 39.5501 20.0265C39.9244 19.5799 39.8658 18.9145 39.4193 18.5401C38.9728 18.1656 38.3072 18.2244 37.933 18.6709C37.86 18.7579 37.781 18.8396 37.6982 18.9133C37.2745 19.2906 36.7332 19.482 36.0894 19.482C34.3499 19.482 32.9346 18.0668 32.9346 16.3272C32.9346 14.5878 34.3499 13.1726 36.0894 13.1726Z" fill="#474654"/>
<path d="M46.592 21.5919H46.6005C47.1299 21.5884 47.6003 21.2492 47.7731 20.7407L50.5222 12.4654C50.7059 11.9125 50.4065 11.3154 49.8535 11.1316C49.3005 10.9477 48.7034 11.2472 48.5197 11.8001L46.574 17.657L44.531 11.7714C44.3399 11.2209 43.7387 10.9294 43.1883 11.1208C42.6379 11.3119 42.3465 11.9129 42.5376 12.4633L45.4188 20.7635C45.5951 21.26 46.0659 21.5919 46.592 21.5919Z" fill="#474654"/>
<path d="M50.2508 34.3032H30.4641C29.8815 34.3032 29.4092 34.7756 29.4092 35.3582C29.4092 35.9408 29.8815 36.4132 30.4641 36.4132H50.2508C50.8334 36.4132 51.3058 35.9408 51.3058 35.3582C51.3058 34.7756 50.8336 34.3032 50.2508 34.3032Z" fill="#474654"/>
<path d="M30.4641 42.8848H40.3576C40.9402 42.8848 41.4125 42.4126 41.4125 41.8299C41.4125 41.2471 40.9402 40.7749 40.3576 40.7749H30.4641C29.8815 40.7749 29.4092 41.2471 29.4092 41.8299C29.4092 42.4126 29.8815 42.8848 30.4641 42.8848Z" fill="#474654"/>
<path d="M50.2508 47.2466H30.4641C29.8815 47.2466 29.4092 47.7188 29.4092 48.3016C29.4092 48.8843 29.8815 49.3565 30.4641 49.3565H50.2508C50.8334 49.3565 51.3058 48.8842 51.3058 48.3016C51.3058 47.7189 50.8336 47.2466 50.2508 47.2466Z" fill="#474654"/>
<path d="M51.3059 54.7727C51.3059 54.19 50.8336 53.7178 50.251 53.7178H30.4641C29.8815 53.7178 29.4092 54.19 29.4092 54.7727C29.4092 55.3555 29.8815 55.8277 30.4641 55.8277H50.2508C50.8336 55.8279 51.3059 55.3555 51.3059 54.7727Z" fill="#474654"/>
<path d="M30.4641 60.3623C29.8815 60.3623 29.4092 60.8345 29.4092 61.4173C29.4092 62 29.8815 62.4722 30.4641 62.4722H40.3576C40.9402 62.4722 41.4125 61.9999 41.4125 61.4173C41.4125 60.8347 40.9402 60.3623 40.3576 60.3623H30.4641Z" fill="#474654"/>
<path d="M50.2508 27.832H30.4641C29.8815 27.832 29.4092 28.3044 29.4092 28.887C29.4092 29.4696 29.8815 29.942 30.4641 29.942H50.2508C50.8334 29.942 51.3058 29.4696 51.3058 28.887C51.3058 28.3044 50.8336 27.832 50.2508 27.832Z" fill="#474654"/>
<path d="M55.8753 14.8038C56.458 14.8038 56.9303 14.3314 56.9303 13.7488V4.03749C56.9305 1.81125 55.1192 0 52.8928 0H4.03763C1.81125 0 0 1.81125 0 4.03749V67.9625C0 70.1888 1.81125 72 4.03763 72H52.8927C55.1191 72 56.9303 70.1888 56.9303 67.9625V18.6811C56.9303 18.0983 56.458 17.6261 55.8753 17.6261C55.2927 17.6261 54.8204 18.0985 54.8204 18.6811V67.9627C54.8204 69.0255 53.9557 69.8902 52.8928 69.8902H26.0034V2.11008H52.8927C53.9555 2.11008 54.8202 2.97465 54.8202 4.03763V13.7489C54.8204 14.3315 55.2927 14.8038 55.8753 14.8038ZM23.8934 69.8901H4.03763C2.97479 69.8901 2.11008 69.0255 2.11008 67.9625V4.03749C2.11008 2.97465 2.97479 2.10994 4.03763 2.10994H23.8934V69.8901Z" fill="#474654"/>
<path d="M13.0152 24.692C17.6132 24.692 21.38 20.9482 21.38 16.3272C21.38 11.7148 17.6276 7.9624 13.0152 7.9624C8.40283 7.9624 4.65039 11.7148 4.65039 16.3272C4.65039 20.9425 8.41155 24.692 13.0152 24.692ZM13.0152 22.5819C11.6483 22.5819 10.3835 22.14 9.35332 21.3932C9.79249 20.5042 10.5516 19.7907 11.471 19.4117C11.9401 19.6323 12.4634 19.7564 13.0152 19.7564C13.567 19.7564 14.0903 19.6323 14.5594 19.4117C15.4788 19.7907 16.2379 20.5042 16.6771 21.3932C15.647 22.1401 14.3821 22.5819 13.0152 22.5819ZM11.4838 16.1149C11.4838 15.2703 12.1707 14.5833 13.0153 14.5833C13.8598 14.5833 14.5469 15.2703 14.5469 16.1149C14.5469 16.9593 13.8599 17.6463 13.0153 17.6463C12.1707 17.6463 11.4838 16.9593 11.4838 16.1149ZM13.0152 10.0725C16.4642 10.0725 19.2699 12.8784 19.2699 16.3272C19.2699 17.6169 18.8774 18.8166 18.2058 19.8133C17.6941 19.0233 17.0106 18.3602 16.2011 17.8763C16.491 17.3539 16.6568 16.7535 16.6568 16.1149C16.6568 14.1069 15.0232 12.4732 13.0152 12.4732C11.0072 12.4732 9.37357 14.1069 9.37357 16.1149C9.37357 16.7536 9.53937 17.3539 9.82934 17.8763C9.01962 18.3602 8.33618 19.0233 7.82458 19.8133C7.15296 18.8166 6.76047 17.6169 6.76047 16.3272C6.76047 12.8784 9.56637 10.0725 13.0152 10.0725Z" fill="#474654"/>
<path d="M6.90223 40.1095H19.1282C20.3847 40.1095 21.4069 39.0873 21.4069 37.8309V34.8166C21.4069 33.5602 20.3847 32.5381 19.1282 32.5381H6.90223C5.64574 32.5381 4.62354 33.5603 4.62354 34.8166V37.8309C4.62354 39.0873 5.64574 40.1095 6.90223 40.1095ZM6.73362 34.8166C6.73362 34.7237 6.80927 34.648 6.90223 34.648H19.1282C19.2211 34.648 19.2968 34.7235 19.2968 34.8166V37.8309C19.2968 37.9239 19.2211 37.9995 19.1282 37.9995H6.90223C6.80927 37.9995 6.73362 37.924 6.73362 37.8309V34.8166Z" fill="#474654"/>
<path d="M6.90223 51.2906H7.96676C8.54937 51.2906 9.02173 50.8184 9.02173 50.2357C9.02173 49.6529 8.54937 49.1807 7.96676 49.1807H6.90223C6.80927 49.1807 6.73362 49.1052 6.73362 49.0121V45.9978C6.73362 45.9048 6.80927 45.8292 6.90223 45.8292H19.1282C19.2211 45.8292 19.2968 45.9047 19.2968 45.9978V49.0121C19.2968 49.105 19.2211 49.1807 19.1282 49.1807H12.8989C12.3163 49.1807 11.8439 49.6531 11.8439 50.2357C11.8439 50.8183 12.3163 51.2906 12.8989 51.2906H19.1282C20.3847 51.2906 21.4069 50.2684 21.4069 49.0121V45.9978C21.4069 44.7413 20.3847 43.7192 19.1282 43.7192H6.90223C5.64574 43.7192 4.62354 44.7414 4.62354 45.9978V49.0121C4.62354 50.2686 5.64574 51.2906 6.90223 51.2906Z" fill="#474654"/>
<path d="M6.90223 62.4723H19.1282C20.3847 62.4723 21.4069 61.4501 21.4069 60.1937V57.1794C21.4069 55.9229 20.3847 54.9009 19.1282 54.9009H6.90223C5.64574 54.9009 4.62354 55.9231 4.62354 57.1794V60.1937C4.62354 61.4501 5.64574 62.4723 6.90223 62.4723ZM6.73362 57.1793C6.73362 57.0863 6.80927 57.0107 6.90223 57.0107H19.1282C19.2211 57.0107 19.2968 57.0862 19.2968 57.1793V60.1936C19.2968 60.2865 19.2211 60.3622 19.1282 60.3622H6.90223C6.80927 60.3622 6.73362 60.2867 6.73362 60.1936V57.1793Z" fill="#474654"/>
</svg>

<svg width="57" height="72" fill="none" xmlns="http://www.w3.org/2000/svg"><path d="M36.09 13.173a3.14 3.14 0 011.763.538 1.055 1.055 0 001.18-1.749 5.24 5.24 0 00-2.944-.9 5.27 5.27 0 00-5.264 5.265 5.27 5.27 0 005.264 5.265c1.16 0 2.202-.381 3.013-1.103a4.36 4.36 0 00.448-.463 1.055 1.055 0 00-1.617-1.355 2.333 2.333 0 01-.235.242c-.423.378-.965.569-1.609.569a3.158 3.158 0 01-3.154-3.155 3.158 3.158 0 013.154-3.154zm10.502 8.419h.008c.53-.004 1-.343 1.173-.851l2.75-8.276a1.055 1.055 0 00-2.003-.665l-1.946 5.857-2.043-5.886a1.055 1.055 0 10-1.993.692l2.88 8.3c.177.497.648.829 1.174.829zm3.658 12.711H30.465a1.055 1.055 0 000 2.11h19.787a1.055 1.055 0 000-2.11zm-19.786 8.582h9.894a1.055 1.055 0 100-2.11h-9.894a1.055 1.055 0 100 2.11zm19.786 4.362H30.465a1.055 1.055 0 100 2.11h19.787a1.055 1.055 0 100-2.11zm1.056 7.526c0-.583-.472-1.055-1.055-1.055H30.464a1.055 1.055 0 100 2.11h19.787c.583 0 1.055-.473 1.055-1.055zm-20.842 5.589a1.055 1.055 0 100 2.11h9.894a1.055 1.055 0 000-2.11h-9.894zm19.786-32.53H30.465a1.055 1.055 0 000 2.11h19.787a1.055 1.055 0 000-2.11z" fill="#474654"/><path d="M55.875 14.804c.583 0 1.055-.473 1.055-1.055V4.037A4.042 4.042 0 0052.893 0H4.038A4.042 4.042 0 000 4.037v63.926A4.042 4.042 0 004.038 72h48.855a4.042 4.042 0 004.037-4.037V18.68a1.055 1.055 0 10-2.11 0v49.282a1.93 1.93 0 01-1.927 1.927h-26.89V2.11h26.89a1.93 1.93 0 011.927 1.928v9.71c0 .584.473 1.056 1.055 1.056zM23.893 69.89H4.038a1.93 1.93 0 01-1.928-1.927V4.037A1.93 1.93 0 014.038 2.11h19.855v67.78z" fill="#474654"/><path d="M13.015 24.692c4.598 0 8.365-3.744 8.365-8.365 0-4.612-3.752-8.365-8.365-8.365-4.612 0-8.365 3.753-8.365 8.365 0 4.615 3.762 8.365 8.365 8.365zm0-2.11a6.219 6.219 0 01-3.662-1.189 4.134 4.134 0 012.118-1.981 3.62 3.62 0 003.088 0 4.134 4.134 0 012.118 1.981 6.218 6.218 0 01-3.662 1.189zm-1.531-6.467c0-.845.687-1.532 1.531-1.532.845 0 1.532.687 1.532 1.532 0 .844-.687 1.531-1.532 1.531a1.533 1.533 0 01-1.531-1.531zm1.531-6.042a6.262 6.262 0 016.255 6.254 6.22 6.22 0 01-1.064 3.486 6.145 6.145 0 00-2.005-1.937 3.62 3.62 0 00.456-1.761 3.646 3.646 0 00-3.642-3.642 3.646 3.646 0 00-3.641 3.642c0 .639.165 1.239.455 1.761a6.142 6.142 0 00-2.004 1.937 6.219 6.219 0 01-1.065-3.486 6.262 6.262 0 016.255-6.255zM6.902 40.11h12.226a2.281 2.281 0 002.279-2.28v-3.013a2.281 2.281 0 00-2.279-2.279H6.902a2.281 2.281 0 00-2.278 2.279v3.014a2.281 2.281 0 002.278 2.278zm-.168-5.293c0-.093.075-.169.168-.169h12.226c.093 0 .169.075.169.169v3.014a.169.169 0 01-.169.168H6.902a.169.169 0 01-.168-.168v-3.014zm.168 16.473h1.065a1.055 1.055 0 100-2.11H6.902a.169.169 0 01-.168-.168v-3.014c0-.093.075-.169.168-.169h12.226a.17.17 0 01.169.169v3.014a.169.169 0 01-.169.169h-6.23a1.055 1.055 0 000 2.11h6.23a2.281 2.281 0 002.279-2.279v-3.014a2.281 2.281 0 00-2.279-2.279H6.902a2.281 2.281 0 00-2.278 2.279v3.014a2.281 2.281 0 002.278 2.279zm0 11.182h12.226a2.281 2.281 0 002.279-2.278v-3.015a2.281 2.281 0 00-2.279-2.278H6.902a2.281 2.281 0 00-2.278 2.278v3.015a2.281 2.281 0 002.278 2.278zm-.168-5.293c0-.093.075-.168.168-.168h12.226c.093 0 .169.075.169.168v3.015a.169.169 0 01-.169.168H6.902a.169.169 0 01-.168-.168v-3.015z" fill="#474654"/></svg>
